newicons/virtual_master.svg

<?xml version="1.0" encoding="UTF-8" standalone="no"?>
<svg
   viewBox="0 0 48 48"
   version="1.1"
   id="svg1"
   sodipodi:docname="virtual_master.svg"
   inkscape:version="1.2.2 (b0a8486541, 2022-12-01)"
   xml:space="preserve"
   xmlns:inkscape="http://www.inkscape.org/namespaces/inkscape"
   xmlns:sodipodi="http://sodipodi.sourceforge.net/DTD/sodipodi-0.dtd"
   xmlns="http://www.w3.org/2000/svg"
   xmlns:svg="http://www.w3.org/2000/svg"><sodipodi:namedview
     id="namedview1"
     pagecolor="#505050"
     bordercolor="#eeeeee"
     borderopacity="1"
     inkscape:showpageshadow="0"
     inkscape:pageopacity="0"
     inkscape:pagecheckerboard="0"
     inkscape:deskcolor="#505050"
     inkscape:zoom="6.2976698"
     inkscape:cx="-29.693523"
     inkscape:cy="36.521445"
     inkscape:window-width="1918"
     inkscape:window-height="1053"
     inkscape:window-x="0"
     inkscape:window-y="0"
     inkscape:window-maximized="1"
     inkscape:current-layer="svg1"
     showgrid="false" /><defs
     id="defs1"><style
       id="style1">.a { fill:none;stroke:#fff;stroke-linecap:round;stroke-linejoin:round; }
</style></defs><path
     style="fill:none;stroke:#ffffff;stroke-width:1;stroke-linecap:round;stroke-linejoin:round;stroke-dashoffset:3.6;stroke-opacity:1"
     d="M 34.584532,22.556571 V 36.393566 L 23.999089,42.500008 13.415466,36.393566 V 22.556571"
     id="path1277" /><path
     style="fill:none;stroke:#ffffff;stroke-width:1;stroke-linecap:round;stroke-linejoin:round;stroke-dashoffset:3.6;stroke-opacity:1"
     d="M 40.620842,32.69928 V 11.278619 L 23.998571,21.343177 7.379158,11.278619 V 32.69928"
     id="path1275" /><path
     style="fill:none;stroke:#ffffff;stroke-width:1;stroke-linecap:round;stroke-linejoin:round;stroke-dashoffset:3.6;stroke-opacity:1"
     d="M 36.592613,5.4999994 23.998917,12.923171 11.407388,5.4999994"
     id="path1211" /></svg>

<?xml version="1.0" encoding="UTF-8"?><svg id="a" xmlns="http://www.w3.org/2000/svg" viewBox="0 0 48 48"><defs><style>.e{fill:none;stroke:#fff;stroke-linecap:round;stroke-linejoin:round;}</style></defs><path id="b" class="e" d="M34.5845,22.5566v13.837l-10.5854,6.1064-10.5836-6.1064v-13.837"/><path id="c" class="e" d="M40.6208,32.6993V11.2786l-16.6223,10.0646L7.3792,11.2786v21.4207"/><path id="d" class="e" d="M36.5926,5.5l-12.5937,7.4232-12.5915-7.4232"/></svg>
